icon-svg/bitfocus.svg

<svg xmlns="http://www.w3.org/2000/svg" fill="#44739e" viewBox="0 0 24 24"><path d="M10.284 2.142a10.013 10.013 0 1 0 11.233 12.98 10.033 10.033 0 0 0-11.233-12.98m4.728 2.905a1.6 1.6 0 1 1 1.421 2.308 1.625 1.625 0 0 1-1.421-2.308m-3.29 14.023c-.033 0-.06-.191-.06-.424v-.424l-.581-.055a5.45 5.45 0 0 1-4.175-2.461c-.987-1.265-.962-1.15-.348-1.616l.49-.371.149.2c.081.109.451.585.821 1.057a3.942 3.942 0 0 0 3.175 1.855h.46l.026-.463.026-.464 1.295.765a14.4 14.4 0 0 1 1.312.829 24.4 24.4 0 0 1-2.59 1.572M12.941 9c.647.385 1.229.75 1.294.81.1.09-.114.246-1.206.893l-1.324.785-.026-.485-.026-.484-1.223.035a3.57 3.57 0 0 0-1.938.355 7.3 7.3 0 0 1-.784.318 2.69 2.69 0 0 1-.473-1.2 6.04 6.04 0 0 1 3.282-.785h1.145v-.466c0-.584-.117-.605 1.279.224m-2.408 5.328a6.256 6.256 0 0 1-3.3-.784 3.15 3.15 0 0 1 .445-1.2c.023 0 .395.144.827.321a3.94 3.94 0 0 0 1.971.352l1.184.033v-.485c0-.57-.181-.618 1.539.405.949.564 1.13.7 1.033.794-.119.111-2.467 1.509-2.535 1.509a1.57 1.57 0 0 1-.037-.474v-.474ZM13 6.916l-1.292.769-.026-.479-.026-.478-.645.049c-1.258.095-2.025.584-3.1 1.98-.411.532-.772 1-.8 1.032a2.92 2.92 0 0 1-1.024-.713 7.06 7.06 0 0 1 .764-1.118 5.333 5.333 0 0 1 4.239-2.54l.581-.058v-.922L13 5.229a9.7 9.7 0 0 1 1.314.855A14.8 14.8 0 0 1 13 6.916m3.447 12.5a1.565 1.565 0 0 1-1.572-1.777 1.589 1.589 0 1 1 1.572 1.777m-.69-6.841a2.054 2.054 0 0 1 1.4-.014 1.6 1.6 0 1 1-1.4.014m.742-1.428a1.468 1.468 0 0 1-1.483-.879 1.593 1.593 0 1 1 1.483.879"/></svg>

<?xml version="1.0" encoding="UTF-8"?>
<svg width="24px" fill="#44739e" height="24px" viewBox="0 0 24 24" version="1.1" xmlns="http://www.w3.org/2000/svg" xmlns:xlink="http://www.w3.org/1999/xlink">
            <path d="M 10.284,2.142 A 10.013,10.013 0 1 0 21.517,15.122 10.033,10.033 0 0 0 10.284,2.142 Z m 4.728,2.905 a 1.6,1.6 0 1 1 1.421,2.308 1.625,1.625 0 0 1 -1.421,-2.308 z m -3.29,14.023 c -0.033,0 -0.06,-0.191 -0.06,-0.424 V 18.222 L 11.081,18.167 A 5.45,5.45 0 0 1 6.906,15.706 C 5.919,14.441 5.944,14.556 6.558,14.09 l 0.49,-0.371 0.149,0.2 c 0.081,0.109 0.451,0.585 0.821,1.057 a 3.942,3.942 0 0 0 3.175,1.855 h 0.46 l 0.026,-0.463 0.026,-0.464 1.295,0.765 a 14.372,14.372 0 0 1 1.312,0.829 24.416,24.416 0 0 1 -2.59,1.572 z M 12.941,9 c 0.647,0.385 1.229,0.75 1.294,0.81 0.1,0.09 -0.114,0.246 -1.206,0.893 l -1.324,0.785 -0.026,-0.485 -0.026,-0.484 -1.223,0.035 a 3.571,3.571 0 0 0 -1.938,0.355 7.294,7.294 0 0 1 -0.784,0.318 2.692,2.692 0 0 1 -0.473,-1.2 6.041,6.041 0 0 1 3.282,-0.785 h 1.145 V 8.776 c 0,-0.584 -0.117,-0.605 1.279,0.224 z m -2.408,5.328 a 6.256,6.256 0 0 1 -3.3,-0.784 3.15,3.15 0 0 1 0.445,-1.2 c 0.023,0 0.395,0.144 0.827,0.321 a 3.938,3.938 0 0 0 1.971,0.352 l 1.184,0.033 v -0.485 c 0,-0.57 -0.181,-0.618 1.539,0.405 0.949,0.564 1.13,0.7 1.033,0.794 -0.119,0.111 -2.467,1.509 -2.535,1.509 A 1.571,1.571 0 0 1 11.66,14.799 V 14.325 Z M 13,6.916 11.708,7.685 11.682,7.206 11.656,6.728 11.011,6.777 c -1.258,0.095 -2.025,0.584 -3.1,1.98 -0.411,0.532 -0.772,1 -0.8,1.032 A 2.922,2.922 0 0 1 6.087,9.076 7.057,7.057 0 0 1 6.851,7.958 5.333,5.333 0 0 1 11.09,5.418 L 11.671,5.36 V 4.438 L 13,5.229 A 9.676,9.676 0 0 1 14.314,6.084 14.8,14.8 0 0 1 13,6.916 Z m 3.447,12.5 a 1.565,1.565 0 0 1 -1.572,-1.777 1.589,1.589 0 1 1 1.572,1.777 z m -0.69,-6.841 a 2.054,2.054 0 0 1 1.4,-0.014 1.6,1.6 0 1 1 -1.4,0.014 z m 0.742,-1.428 a 1.468,1.468 0 0 1 -1.483,-0.879 1.593,1.593 0 1 1 1.483,0.879 z"/>

</svg>
